icon/lg/vagrant.svg

<?xml version="1.0" encoding="UTF-8"?>
<svg viewBox="0 0 512 139" version="1.1" xmlns="http://www.w3.org/2000/svg" xmlns:xlink="http://www.w3.org/1999/xlink" preserveAspectRatio="xMidYMid" height="1em" width="1em">
  <g>
    <path d="M229.817613,32.4665263 L244.288144,32.4665263 L222.291439,106.201717 L201.743515,106.201717 L179.74681,32.4665263 L194.220221,32.4665263 L212.005956,93.8971573 L229.814733,32.4665263 L229.817613,32.4665263 Z M284.531429,106.201717 L273.485552,106.201717 L272.497615,102.538 C267.706496,105.65962 262.10941,107.317126 256.391084,107.307785 C246.543404,107.307785 242.355476,100.556367 242.355476,91.1781721 C242.355476,80.2100625 247.11946,76.0163735 258.047246,76.0163735 L270.979707,76.0163735 L270.979707,70.4401497 C270.979707,64.4722076 269.323546,62.3523209 260.694224,62.3523209 C255.673895,62.404166 250.670847,62.9600602 245.762848,64.0113627 L244.103806,53.7114782 C250.099194,52.0463884 256.289451,51.1862808 262.511681,51.1537888 C279.421811,51.1537888 284.393175,57.1217308 284.393175,70.6475299 L284.531429,106.201717 L284.531429,106.201717 Z M271.048834,85.8323708 L261.108985,85.8323708 C256.690634,85.8323708 255.472275,87.0536099 255.472275,91.1551299 C255.472275,95.2566499 256.690634,96.570058 260.878562,96.570058 C264.44632,96.5182489 267.943352,95.5672148 271.045954,93.8049883 L271.045954,85.8323708 L271.048834,85.8323708 L271.048834,85.8323708 Z M310.27826,91.6851016 C308.573254,92.5142346 307.379168,94.1221138 307.078268,95.9940018 C307.078268,97.4226211 307.953873,98.0908463 310.07088,98.2982265 C316.030181,98.9664517 319.273377,99.2890431 325.647439,99.9572683 C334.391972,100.948085 337.151281,105.280027 337.151281,113.022222 C337.151281,124.543346 332.94031,129.151848 312.833069,129.151848 C305.837436,129.159877 298.872305,128.229901 292.123849,126.386726 L293.780011,116.317264 C299.706616,117.82504 305.796027,118.598913 311.911379,118.621489 C322.634665,118.621489 324.728629,117.838052 324.728629,114.312588 C324.728629,110.787124 323.737812,110.441491 319.642053,110.003688 C313.452329,109.335463 310.900401,109.012871 304.065494,108.229435 C296.450031,107.35383 293.457419,104.79614 293.457419,97.9295506 C293.69416,94.1126476 295.806223,90.6608605 299.097009,88.7126517 C294.125645,85.7171596 291.801258,80.7400342 291.801258,74.2190782 L291.801258,69.1036993 C292.03168,57.9282094 297.87577,51.176831 313.475372,51.176831 C316.577434,51.1537888 319.670856,51.5224647 322.680749,52.2828589 L339.268287,52.2828589 L339.268287,59.0342373 C337.381703,59.5872512 335.172528,60.1402652 333.308986,60.6932791 C334.593591,63.3085742 335.238774,66.1888551 335.19557,69.1036993 L335.19557,74.196036 C335.19557,85.1641456 328.570924,91.8003128 313.521456,91.8003128 C312.439071,91.8248976 311.356172,91.7864288 310.27826,91.6851016 L310.27826,91.6851016 Z M313.36016,62.0066872 C306.735514,62.0066872 304.411128,64.4491654 304.411128,69.541502 L304.411128,73.7121488 C304.411128,79.0349079 307.055226,81.0165411 313.36016,81.0165411 C319.665095,81.0165411 322.427454,78.9196966 322.427454,73.7121488 L322.427454,69.541502 C322.450327,64.4952499 320.12594,62.0297294 313.383203,62.0297294 L313.36016,62.0066872 Z M372.953172,63.57356 C368.011343,65.8153312 363.249587,68.4345376 358.710183,71.407924 L358.710183,106.201717 L345.135419,106.201717 L345.135419,52.2828589 L356.639261,52.2828589 L357.514867,58.2508009 C361.900799,55.2818028 366.658648,52.9033625 371.665687,51.176831 L372.953172,63.57356 L372.953172,63.57356 Z M418.04973,106.201717 L407.006733,106.201717 L406.015917,102.538 C401.225972,105.659849 395.629732,107.317401 389.912266,107.307787 C380.064586,107.307787 375.876657,100.556367 375.876657,91.1781721 C375.876657,80.2100625 380.637762,76.0163735 391.568428,76.0163735 L404.498009,76.0163735 L404.498009,70.4401497 C404.498009,64.4722076 402.841847,62.3523209 394.212526,62.3523209 C389.192467,62.4050111 384.190334,62.9608037 379.281149,64.0113627 L377.624988,53.7114782 C383.619391,52.0463734 389.808698,51.1862631 396.029983,51.1537888 C412.942992,51.1537888 417.911477,57.1217308 417.911477,70.6475299 L418.04973,106.201717 L418.04973,106.201717 Z M404.567135,85.8323708 L394.627286,85.8323708 C390.208935,85.8323708 388.990576,87.0536099 388.990576,91.1551299 C388.990576,95.2566499 390.208935,96.570058 394.396863,96.570058 C397.965583,96.518608 401.463634,95.5675662 404.567135,93.8049883 L404.567135,85.8323708 L404.567135,85.8323708 Z M458.177804,106.201717 L458.177804,68.5506854 C458.177804,65.6704045 456.959445,64.2417852 453.877544,64.2417852 C448.937624,64.8226143 444.164692,66.389758 439.841936,68.8502346 L439.841936,106.201717 L426.35646,106.201717 L426.35646,52.2828589 L436.641943,52.2828589 L437.978394,56.8913083 C444.692306,53.5264933 452.035913,51.6035181 459.537296,51.2459578 C468.486329,51.2459578 471.686321,57.5595335 471.686321,67.1911928 L471.686321,106.363013 L458.177804,106.201717 L458.177804,106.201717 Z M511.35355,105.187858 C507.550305,106.520107 503.556554,107.228205 499.527116,107.284703 C489.679436,107.284703 484.708071,102.676253 484.708071,92.9985097 L484.708071,63.0435883 L476.631763,63.0435883 L476.631763,52.2828589 L484.708071,52.2828589 L484.708071,38.8953133 L498.190666,37.005849 L498.190666,52.2828589 L511.995852,52.2828589 L511.123127,63.0205461 L498.190666,63.0205461 L498.190666,91.2472989 C498.020188,92.5744959 498.479367,93.9051544 499.432067,94.8447697 C500.384114,95.7846647 501.724366,96.2193122 503.04682,96.017044 C505.332443,95.9478177 507.598803,95.5759022 509.786677,94.9110162 L511.35355,105.187858 Z" fill="#000000"/>
    <g>
      <path d="M115.323567,0 L133.524062,10.6455182 L103.174542,28.2958796 L103.174,28.316 L133.524062,10.6455182 L133.524062,23.2957119 L92.7709675,123.229938 L66.75,138.251 L66.7505098,138.253483 L66.749,138.252 L66.7476296,138.253483 L66.747,138.251 L40.9777563,123.345149 L0,23.6874301 L0,10.6455182 L18.2033753,0 L48.5759374,17.8116571 L48.471,17.871 L48.5528951,17.9038261 L48.5528951,29.9318791 L66.7505098,72.4909097 L66.75,86.709 L66.7533901,86.7079762 L66.7533901,72.4909097 L84.9740471,29.9318791 L84.9740471,17.7886148 L84.9970893,17.7886148 L115.323567,0 Z" fill="#1159CC"/>
      <polygon fill="#127EFF" points="115.323567 2.55820334e-15 84.9970893 17.7886148 84.9740471 17.7886148 84.9740471 29.9318791 66.7533901 72.4909097 66.7533901 86.7079762 54.6274075 93.7589038 30.3524001 39.0105245 30.3524001 28.2958796 48.5759374 17.8116571 18.2033753 0 0 10.6455182 0 23.6874301 40.9777563 123.345149 66.7505098 138.253483 66.7505098 100.809831 78.8995347 93.7589038 78.7382389 93.6667348 103.174542 39.0105245 103.174542 28.2958796 133.524062 10.6455182"/>
    </g>
  </g>
</svg>

<svg width="512" height="139" xmlns="http://www.w3.org/2000/svg" preserveAspectRatio="xMidYMid"><path d="M229.818 32.467h14.47l-21.997 73.735h-20.547l-21.997-73.735h14.473l17.786 61.43 17.809-61.43h.003Zm54.713 73.735h-11.045l-.988-3.664a29.417 29.417 0 0 1-16.107 4.77c-9.848 0-14.036-6.752-14.036-16.13 0-10.968 4.764-15.162 15.692-15.162h12.933V70.44c0-5.968-1.656-8.088-10.286-8.088a74.991 74.991 0 0 0-14.931 1.66l-1.66-10.3a70.158 70.158 0 0 1 18.409-2.558c16.91 0 21.881 5.968 21.881 19.494l.138 35.554Zm-13.482-20.37h-9.94c-4.418 0-5.637 1.222-5.637 5.323 0 4.102 1.219 5.415 5.407 5.415a21.21 21.21 0 0 0 10.167-2.765v-7.973h.003Zm39.23 5.853a5.818 5.818 0 0 0-3.2 4.309c0 1.429.875 2.097 2.992 2.304 5.96.668 9.202.991 15.576 1.66 8.745.99 11.504 5.322 11.504 13.064 0 11.521-4.21 16.13-24.318 16.13a78.26 78.26 0 0 1-20.71-2.765l1.657-10.07a74.657 74.657 0 0 0 18.131 2.304c10.724 0 12.818-.783 12.818-4.308 0-3.526-.991-3.872-5.087-4.31-6.19-.668-8.742-.99-15.577-1.774-7.615-.875-10.608-3.433-10.608-10.3a11.541 11.541 0 0 1 5.64-9.216c-4.971-2.996-7.296-7.973-7.296-14.494v-5.115c.23-11.176 6.075-17.927 21.674-17.927a36.472 36.472 0 0 1 9.206 1.106h16.587v6.751c-1.886.553-4.095 1.106-5.959 1.66a18.449 18.449 0 0 1 1.887 8.41v5.092c0 10.968-6.625 17.604-21.675 17.604a27.887 27.887 0 0 1-3.243-.115Zm3.081-29.678c-6.624 0-8.949 2.442-8.949 7.535v4.17c0 5.323 2.644 7.305 8.95 7.305 6.304 0 9.066-2.097 9.066-7.305v-4.17c.023-5.047-2.301-7.512-9.044-7.512l-.023-.023Zm59.593 1.567a105.643 105.643 0 0 0-14.243 7.834v34.794h-13.575v-53.92h11.504l.876 5.969a60.322 60.322 0 0 1 14.15-7.074l1.288 12.397Zm45.097 42.628h-11.043l-.991-3.664a29.402 29.402 0 0 1-16.104 4.77c-9.847 0-14.035-6.752-14.035-16.13 0-10.968 4.76-15.162 15.691-15.162h12.93V70.44c0-5.968-1.656-8.088-10.285-8.088a75.12 75.12 0 0 0-14.932 1.66l-1.656-10.3a70.135 70.135 0 0 1 18.405-2.558c16.913 0 21.881 5.968 21.881 19.494l.139 35.554Zm-13.483-20.37h-9.94c-4.418 0-5.636 1.222-5.636 5.323 0 4.102 1.218 5.415 5.406 5.415a21.213 21.213 0 0 0 10.17-2.765v-7.973Zm53.61 20.37V68.55c0-2.88-1.218-4.31-4.3-4.31a37.141 37.141 0 0 0-14.035 4.61v37.35h-13.486V52.284h10.286l1.336 4.608a53.838 53.838 0 0 1 21.56-5.645c8.948 0 12.148 6.314 12.148 15.945v39.172l-13.508-.161Zm53.177-1.014a37.357 37.357 0 0 1-11.827 2.097c-9.848 0-14.819-4.609-14.819-14.286V63.044h-8.076V52.283h8.076V38.895l13.483-1.89v15.278h13.805l-.873 10.738h-12.932v28.226a4.286 4.286 0 0 0 1.241 3.598 4.234 4.234 0 0 0 3.615 1.172 25.874 25.874 0 0 0 6.74-1.106l1.567 10.277Z"/><path d="m115.324 0 18.2 10.646-30.35 17.65v.02l30.35-17.67v12.65L92.771 123.23 66.75 138.25v.002l-.001-.001-.001.001-.001-.002-25.77-14.906L0 23.687V10.646L18.203 0l30.373 17.812-.105.059.082.033v12.028L66.75 72.49l-.001 14.218.003-.001V72.491l18.221-42.56V17.79h.023L115.324 0Z" fill="#1159CC"/><path fill="#127EFF" d="M115.324 0 84.997 17.789h-.023v12.143L66.754 72.49v14.217l-12.127 7.05-24.275-54.747V28.296l18.224-10.484L18.203 0 0 10.646v13.041l40.978 99.658 25.773 14.908V100.81L78.9 93.759l-.162-.092 24.437-54.656V28.296l30.35-17.65z"/></svg>
